src/assets/images/icons/coin-stack.svg

<svg width="24" height="24" viewBox="0 0 24 24" fill="none" xmlns="http://www.w3.org/2000/svg">
<path d="M14.1755 4.22225C14.1766 2.99445 11.6731 2 8.58832 2C5.50357 2 3.00224 2.99557 3 4.22225M3 4.22225C3 5.45004 5.50133 6.44449 8.58832 6.44449C11.6753 6.44449 14.1766 5.45004 14.1766 4.22225L14.1766 12.8445M3 4.22225V17.5556C3.00112 18.7834 5.50245 19.7779 8.58832 19.7779C10.0849 19.7779 11.4361 19.5412 12.4387 19.1601M3.00112 8.66672C3.00112 9.89451 5.50245 10.889 8.58944 10.889C11.6764 10.889 14.1778 9.89451 14.1778 8.66672M12.5057 14.6946C11.4976 15.0891 10.115 15.3335 8.58832 15.3335C5.50245 15.3335 3.00112 14.3391 3.00112 13.1113M20.5272 13.4646C22.4909 15.4169 22.4909 18.5836 20.5272 20.5358C18.5635 22.4881 15.3781 22.4881 13.4144 20.5358C11.4507 18.5836 11.4507 15.4169 13.4144 13.4646C15.3781 11.5124 18.5635 11.5124 20.5272 13.4646Z" stroke="#181D27" stroke-width="2" stroke-linecap="round" stroke-linejoin="round"/>
</svg>

<svg xmlns="http://www.w3.org/2000/svg" fill="none" viewBox="0 0 24 24"><path stroke="#181D27" stroke-linecap="round" stroke-linejoin="round" stroke-width="2" d="M14.176 4.222C14.176 2.994 11.673 2 8.587 2S3.002 2.996 3 4.222m0 0C3 5.45 5.501 6.444 8.588 6.444s5.589-.994 5.589-2.222v8.623M3 4.222v13.334c.001 1.227 2.502 2.222 5.588 2.222 1.497 0 2.848-.237 3.85-.618M3.002 8.667c0 1.228 2.501 2.222 5.588 2.222s5.589-.994 5.589-2.222m-1.672 6.028c-1.008.394-2.391.639-3.918.639-3.086 0-5.587-.995-5.587-2.223m17.526.354a4.98 4.98 0 0 1 0 7.07 5.05 5.05 0 0 1-7.113 0 4.98 4.98 0 0 1 0-7.07 5.05 5.05 0 0 1 7.113 0"/></svg>
